X: 126
T: Lavender's Blue
%R: air, waltz
B: "The Everyday Song Book", 1927
F: http://www.library.pitt.edu/happybirthday/pdf/The_Everyday_Song_Book.pdf
Z: 2017 John Chambers <jc:trillian.mit.edu>
M: 6/8
L: 1/16
K: F
% - - - - - - - - - - - - - - - - - - - - - - - - - - - - -
[| c2 c2 d2 c2 B A G F | f2 e2 d2 c6 | c2 c2 d2 c2 |
w: La-ven-der's blue, dil-ly, dil-ly, la-ven-der's green, When I'm a king,
w: Call up your men,  dil-ly, dil-ly, set them to work,   Some with a rake,
w: If it should hap,  dil-ly, dil-ly, hope it may chance, We shall be gay,
%
B A G F | G2 G2 A2 G6 | c2 c2 d2 c2 B A G F |
w: dil-ly, dil-ly, you shall be queen,  Who told you so,   dil-ly, dil-ly,
w: dil-ly, dil-ly, some with a fork,    Some to make hay,  dil-ly, dil-ly,
w: dil-ly, dil-ly, we shall both dance, La-ven-der's blue, dil-ly, dil-ly,
%
f2 e2 d2 c6 | f2 e2 d2 c2 B A G F | c2 c2 E F6 |]
w: who told you so?    'Twas mine own heart, dil-ly, dil-ly, that told me so.
w: some to thresh corn, Whilst you and I,    dil-ly, dil-ly, keep our selves warm.
w: la-ven-der's green,  When I'm a king,     dil-ly, dil-ly, you shall be queen.
% - - - - - - - - - - - - - - - - - - - - - - - - - - - - -

%%sep 1 1 500
%%sep 1 1 500

